X:1
T:If I was a Blackbird
M:3/4
L:1/4
K:G
G/2-A/2| B3/2 A/2 B| D G A| B d e| d2 d| d ^c d| e d B| D c B| A2 A|\
 B3/2 A/2 B| D G A| B d e| d2 d| d ^c d| e dB/2-G/2| D B A| G2||
